X: 488
T: Craig's reel
C:anon.
O:Ireland
B:Francis O'Neill: "The Dance Music of Ireland" (1907) no. 488
R:Reel
Z:Transcribed by Frank Nordberg - http://www.musicaviva.com
F:http://www.musicaviva.com/abc/tunes/ireland/oneill-1001/oneill-1001-048
8.abc
M:C|
L:1/8
K:D
FDFA B2Bc|dBcA BEEG|FDFA BABc|dABG FDD2|FDFA B2Bc|dBcA BEEG|(3FED EF GABc |dABG FDD2||
d2fd Adfd|Adfd eBB2|d2fd Adfd|(3fga eg Adfd|d2fd Adfd|Adfd eBB2|g2fd (3efg fe|BGAG FDD2|]
W:
W:
W:  From Musica Viva - http://www.musicaviva.com
W:  the Internet center for free sheet music downloads.


